src/lib/packages/icons/src/assets/line/signal-stream.svg

<svg width="24" height="24" viewBox="0 0 24 24" fill="none" xmlns="http://www.w3.org/2000/svg">
<path d="M15.54 16.2901C15.35 16.2901 15.1589 16.2181 15.0129 16.0731C14.7179 15.7811 14.716 15.307 15.007 15.012C15.809 14.201 16.25 13.1321 16.25 11.9991C16.25 10.8661 15.809 9.79716 15.007 8.98616C14.716 8.69216 14.7179 8.21712 15.0129 7.92512C15.3089 7.63412 15.784 7.63598 16.074 7.93098C17.155 9.02398 17.751 10.4691 17.751 11.9981C17.751 13.5271 17.155 14.973 16.074 16.065C15.927 16.216 15.733 16.2901 15.54 16.2901ZM8.98706 16.0731C9.28206 15.7811 9.28404 15.307 8.99304 15.012C8.19104 14.201 7.75 13.1321 7.75 11.9991C7.75 10.8661 8.19104 9.79716 8.99304 8.98616C9.28404 8.69216 9.28206 8.21712 8.98706 7.92512C8.69206 7.63412 8.21703 7.63598 7.92603 7.93098C6.84503 9.02398 6.24902 10.4691 6.24902 11.9981C6.24902 13.5271 6.84503 14.973 7.92603 16.065C8.07203 16.213 8.26598 16.2882 8.45898 16.2882C8.64998 16.2902 8.84106 16.2181 8.98706 16.0731ZM19.246 18.503C20.861 16.72 21.75 14.4101 21.75 12.0001C21.75 9.59007 20.861 7.28014 19.246 5.49714C18.969 5.19014 18.494 5.16716 18.187 5.44416C17.879 5.72216 17.856 6.19598 18.134 6.50398C19.498 8.01098 20.249 9.96305 20.249 12.001C20.249 14.039 19.498 15.9911 18.134 17.4981C17.856 17.8051 17.879 18.2792 18.187 18.5582C18.331 18.6882 18.5099 18.752 18.6899 18.752C18.8949 18.75 19.099 18.667 19.246 18.503ZM5.81201 18.556C6.12001 18.278 6.14299 17.8042 5.86499 17.4962C4.50099 15.9892 3.75 14.0371 3.75 11.9991C3.75 9.9611 4.50099 8.00903 5.86499 6.50203C6.14299 6.19502 6.12001 5.72097 5.81201 5.44197C5.50401 5.16497 5.03005 5.18719 4.75305 5.49519C3.13805 7.27819 2.24902 9.58812 2.24902 11.9981C2.24902 14.4081 3.13805 16.718 4.75305 18.501C4.90005 18.665 5.10496 18.7481 5.30896 18.7481C5.48896 18.7501 5.66901 18.686 5.81201 18.556ZM14.25 12.0001C14.25 10.7591 13.24 9.75007 12 9.75007C10.76 9.75007 9.75 10.7591 9.75 12.0001C9.75 13.2411 10.76 14.2501 12 14.2501C13.24 14.2501 14.25 13.2411 14.25 12.0001ZM12.75 12.0001C12.75 12.4141 12.413 12.7501 12 12.7501C11.587 12.7501 11.25 12.4141 11.25 12.0001C11.25 11.5861 11.587 11.2501 12 11.2501C12.413 11.2501 12.75 11.5861 12.75 12.0001Z" fill="currentColor"/>
</svg>

<svg xmlns="http://www.w3.org/2000/svg" width="24" height="24" fill="none"><path fill="currentColor" d="M15.54 16.29a.75.75 0 0 1-.533-1.278 4.26 4.26 0 0 0 1.243-3.013 4.26 4.26 0 0 0-1.243-3.013.75.75 0 1 1 1.067-1.055 5.753 5.753 0 0 1 1.677 4.067 5.751 5.751 0 0 1-1.677 4.067.742.742 0 0 1-.534.225Zm-6.553-.217a.75.75 0 0 0 .006-1.061 4.26 4.26 0 0 1-1.243-3.013 4.26 4.26 0 0 1 1.243-3.013.75.75 0 0 0-1.067-1.055 5.753 5.753 0 0 0-1.677 4.067 5.75 5.75 0 0 0 1.677 4.067.748.748 0 0 0 1.061.008Zm10.259 2.43A9.668 9.668 0 0 0 21.75 12c0-2.41-.889-4.72-2.504-6.503a.75.75 0 0 0-1.112 1.007 8.175 8.175 0 0 1 2.115 5.497c0 2.038-.751 3.99-2.115 5.497a.75.75 0 1 0 1.112 1.005Zm-13.434.053a.75.75 0 0 0 .053-1.06A8.175 8.175 0 0 1 3.75 12c0-2.038.751-3.99 2.115-5.497a.75.75 0 1 0-1.112-1.007 9.668 9.668 0 0 0-2.504 6.503c0 2.41.889 4.72 2.504 6.503a.745.745 0 0 0 .556.247c.18.002.36-.062.503-.192ZM14.25 12c0-1.24-1.01-2.25-2.25-2.25A2.253 2.253 0 0 0 9.75 12c0 1.241 1.01 2.25 2.25 2.25s2.25-1.009 2.25-2.25Zm-1.5 0a.75.75 0 0 1-1.5 0 .75.75 0 0 1 1.5 0Z"/></svg>
